X:1
T:Martin O'Connor's
M:C|
L:1/4
K:D
"A7"FE ED/E/|"D"FD D>E|"A7"FE EA|"Bm"dB B2|
"A7"FE ED/E/|"D"FD D>E|"Bm"FD "A"cd|"G"B4:|
|:"D"Ad d>e|"A7"fe e>f|"Bm"d>e dB|"G"BA "A7"A2|
"D"Ad d>e|"A7"fe e>f|"Bm"d>e "A7"cA|"G"B4:|
